X:742
T:Lad o' The Plaidie, The 
C:Joe Buchanan's Scottish Tome - Page 415.2
I:415 2
R:Schottische
Z:Carl Allison
L:1/8
M:4/4
K:D
"D"f>gf>e d>ed>B | "D"A>FA>d "A7"c<e e2 |
"D"f>gf>e d>ed>B | "A7"c>de>a "D"f<d d2 :|
"D"A2 ((3FED) F>A A<d | "G"B>AB>d "A7"c<e e2 |
"D"A2 ((3FED) F>A A<d | "A7"c>de>a "D"f<d d2 :|
"D"f2 ((3agf) "A7/C#"e2 ((3gfe) | "Bm"d2 ((3fed) "F#m"c2 ((3edc) |
"G"B2 ((3dcB) "D"A>df>a | "Em"g>fe>d "A7"c<a a2 |
"G"((3fdf) ((3agf) "A7/C#"((3ece) ((3gfe) | "Bm"((3dBd) ((3fed) "F#m"((3cAc) ((3edc) |
"G"((3BGB) ((3dcB) "D"A>df>a | "Em"g>f"A7"e>a "D"f<d d2 |]

